assets/img/braze_icons/speedometer-02.svg

<svg fill="none" height="24" viewBox="0 0 24 24" width="24" xmlns="http://www.w3.org/2000/svg"><g fill="#801ed7"><path clip-rule="evenodd" d="m1 12c0-6.07513 4.92487-11 11-11 6.0751 0 11 4.92487 11 11 0 2.363-.7451 4.552-2.0131 6.3448-.1623.2294-.2434.3441-.3647.4002-.1015.0469-.232.058-.3399.0289-.129-.0348-.2355-.1413-.4484-.3542l-.3328-.3328c-.6141-.6145-1.0392-1.0399-1.5455-1.3501-.4473-.2741-.9351-.4761-1.4452-.5986-.5773-.1386-1.1787-.1384-2.0474-.1382h-4.92602c-.86874-.0002-1.47007-.0004-2.04737.1382-.51017.1225-.99789.3245-1.44524.5987-.50621.3102-.9313.7355-1.54542 1.35l-.33286.3328c-.21292.213-.31939.3194-.44838.3542-.10793.0291-.23843.018-.3399-.0289-.12127-.0561-.2024-.1708-.36466-.4002-1.26806-1.7928-2.01315-3.9818-2.01315-6.3448zm12-9c0-.55228-.4477-1-1-1s-1 .44772-1 1v2.25c0 .55228.4477 1 1 1s1-.44772 1-1zm-10 8c-.55228 0-1 .4477-1 1s.44772 1 1 1h2.25c.55228 0 1-.4477 1-1s-.44772-1-1-1zm15.75 0c-.5523 0-1 .4477-1 1s.4477 1 1 1h2.25c.5523 0 1-.4477 1-1s-.4477-1-1-1zm-12.41344-6.00716c-.39052-.39052-1.02369-.39052-1.41421 0-.39053.39053-.39053 1.02369 0 1.41422l1.5628 1.5628c.39053.39053 1.02369.39053 1.41422 0 .39052-.39052.39052-1.02369 0-1.41421zm12.73614 1.41921c.3932-.38774.3977-1.02089.01-1.41418-.3878-.39328-1.0209-.39777-1.4142-.01002l-5.0207 4.95c-.0426.04204-.0807.08695-.1142.13415-.1698-.0469-.3488-.072-.5336-.072-1.1046 0-2 .8954-2 2s.8954 2 2 2 2-.8954 2-2c0-.1849-.0251-.3639-.072-.5339.0434-.0308.0849-.0655.124-.104z" fill-rule="evenodd"/><path d="m18.1674 19.5817.2523.2522c.2129.213.3194.3194.3541.4484.0291.108.018.2385-.0289.3399-.056.1213-.1707.2024-.4002.3647-1.7928 1.268-3.9817 2.0131-6.3447 2.0131-2.36297 0-4.55192-.7451-6.34473-2.0131-.22941-.1623-.34412-.2434-.40018-.3647-.0469-.1014-.05801-.2319-.02892-.3399.03476-.129.14122-.2354.35415-.4483l.25228-.2523c.72546-.7255.97749-.9684 1.25676-1.1396.26841-.1644.56104-.2856.86715-.3591.31849-.0765.66848-.0829 1.69443-.0829l4.69806-.0001c1.026 0 1.376.0065 1.6945.0829.3061.0735.5987.1947.8671.3592.2793.1712.5314.4141 1.2568 1.1396z"/></g></svg>

<svg width="24" height="24" viewBox="0 0 24 24" fill="none" xmlns="http://www.w3.org/2000/svg">
<path fill-rule="evenodd" clip-rule="evenodd" d="M1 12C1 5.92487 5.92487 1 12 1C18.0751 1 23 5.92487 23 12C23 14.363 22.2549 16.552 20.9869 18.3448C20.8246 18.5742 20.7435 18.6889 20.6222 18.745C20.5207 18.7919 20.3902 18.803 20.2823 18.7739C20.1533 18.7391 20.0468 18.6326 19.8339 18.4197L19.5011 18.0869C18.887 17.4724 18.4619 17.047 17.9556 16.7368C17.5083 16.4627 17.0205 16.2607 16.5104 16.1382C15.9331 15.9996 15.3317 15.9998 14.463 16L9.53698 16C8.66824 15.9998 8.06691 15.9996 7.48961 16.1382C6.97944 16.2607 6.49172 16.4627 6.04437 16.7369C5.53816 17.0471 5.11307 17.4724 4.49895 18.0869L4.16609 18.4197C3.95317 18.6327 3.8467 18.7391 3.71771 18.7739C3.60978 18.803 3.47928 18.7919 3.37781 18.745C3.25654 18.6889 3.17541 18.5742 3.01315 18.3448C1.74509 16.552 1 14.363 1 12ZM13 3C13 2.44772 12.5523 2 12 2C11.4477 2 11 2.44772 11 3V5.25C11 5.80228 11.4477 6.25 12 6.25C12.5523 6.25 13 5.80228 13 5.25V3ZM3 11C2.44772 11 2 11.4477 2 12C2 12.5523 2.44772 13 3 13H5.25C5.80228 13 6.25 12.5523 6.25 12C6.25 11.4477 5.80228 11 5.25 11H3ZM18.75 11C18.1977 11 17.75 11.4477 17.75 12C17.75 12.5523 18.1977 13 18.75 13H21C21.5523 13 22 12.5523 22 12C22 11.4477 21.5523 11 21 11H18.75ZM6.33656 4.99284C5.94604 4.60232 5.31287 4.60232 4.92235 4.99284C4.53182 5.38337 4.53182 6.01653 4.92235 6.40706L6.48515 7.96986C6.87568 8.36039 7.50884 8.36039 7.89937 7.96986C8.28989 7.57934 8.28989 6.94617 7.89937 6.55565L6.33656 4.99284ZM19.0727 6.41205C19.4659 6.02431 19.4704 5.39116 19.0827 4.99787C18.6949 4.60459 18.0618 4.6001 17.6685 4.98785L12.6478 9.93785C12.6052 9.97989 12.5671 10.0248 12.5336 10.072C12.3638 10.0251 12.1848 10 12 10C10.8954 10 10 10.8954 10 12C10 13.1046 10.8954 14 12 14C13.1046 14 14 13.1046 14 12C14 11.8151 13.9749 11.6361 13.928 11.4661C13.9714 11.4353 14.0129 11.4006 14.052 11.3621L19.0727 6.41205Z" fill="#801ED7"/>
<path d="M18.1674 19.5817L18.4197 19.8339C18.6326 20.0469 18.7391 20.1533 18.7738 20.2823C18.8029 20.3903 18.7918 20.5208 18.7449 20.6222C18.6889 20.7435 18.5742 20.8246 18.3447 20.9869C16.5519 22.2549 14.363 23 12 23C9.63703 23 7.44808 22.2549 5.65527 20.9869C5.42586 20.8246 5.31115 20.7435 5.25509 20.6222C5.20819 20.5208 5.19708 20.3903 5.22617 20.2823C5.26093 20.1533 5.36739 20.0469 5.58032 19.834L5.8326 19.5817C6.55806 18.8562 6.81009 18.6133 7.08936 18.4421C7.35777 18.2777 7.6504 18.1565 7.95651 18.083C8.275 18.0065 8.62499 18.0001 9.65094 18.0001L14.349 18C15.375 18 15.725 18.0065 16.0435 18.0829C16.3496 18.1564 16.6422 18.2776 16.9106 18.4421C17.1899 18.6133 17.442 18.8562 18.1674 19.5817Z" fill="#801ED7"/>
</svg>
